!!!COM: Anon.
!!!OCL: Francis James Child
!!!OPR: The English and Scottish Popular Ballads
!!!OVM: Vol. 1
!!!ONB: Ballad No. 33, Tune No. 1
!!!ONM: No. 33
!!!PDT: 1882
!!!YEM: Public domain.
**kern
*M6/8
{8g
=1
4g
8b
4dd
8gg
=2
4ee
8cc
4dd}
!! Second phrase:
{8cc
=3
4b
8a
4b
8dd
=4
4ee
8a
4a}
!! Third phrase:
{8b
=5
4g
8b
4dd
8gg
=6
4ee
8cc
4dd}
!! Fourth phrase:
{8b
=7
4cc
8a
4dd
8cc
=8
4b
8g
4g}
====
*-
!!!OCY: Britain; England
!!!PPP: Boston
!!!ODT: <1882
!!!AFR: folk song
!!!AST: monophony
!!!AMT: compound duple
!!!SCA: Child Collection
!!!AIN: vox
!!!EEV: 1.0
!!!RDT: 1987 June
!!!YER: 1994 August 10
!!!VTS: 652652838
